dist/img/svg/handset.svg

<svg width="24" height="24" viewBox="0 0 24 24" fill="none" xmlns="http://www.w3.org/2000/svg">
<path d="M14.1492 6.44035C14.9909 6.60425 15.7644 7.01511 16.3708 7.62033C16.9772 8.22556 17.3888 8.99761 17.5531 9.83769M14.1492 3C15.8979 3.19389 17.5286 3.97549 18.7735 5.21645C20.0184 6.45741 20.8035 8.08398 21 9.82909M19.9939 19.969C19.8978 20.1884 19.7568 20.3854 19.5799 20.5474C19.4031 20.7093 19.1943 20.8326 18.967 20.9093C18.7396 20.9861 18.4987 21.0146 18.2597 20.993C15.608 20.7054 13.0608 19.8011 10.8229 18.3526C8.74083 17.032 6.97557 15.2701 5.65252 13.192C4.19617 10.9482 3.28985 8.3936 3.00699 5.73508C2.98546 5.49723 3.01378 5.25752 3.09015 5.0312C3.16652 4.80488 3.28927 4.59691 3.45059 4.42054C3.6119 4.24416 3.80824 4.10324 4.02711 4.00675C4.24598 3.91026 4.48258 3.86031 4.72185 3.86009H6.7814H6.79417C7.39212 3.86007 7.96322 3.86005 8.44778 4.27597C8.76487 4.54815 8.97199 4.92612 9.03052 5.33944C9.13963 6.16518 9.34199 6.97595 9.63373 7.75628C9.74967 8.06413 9.77476 8.39869 9.70604 8.72034C9.63731 9.04198 9.47764 9.33722 9.24595 9.57106L8.15155 10.6634C9.37827 12.8166 11.1646 14.5995 13.322 15.8239L14.4164 14.7316C14.6507 14.5003 14.9465 14.341 15.2687 14.2724C15.591 14.2038 15.9262 14.2288 16.2346 14.3445C16.6487 14.4988 17.0714 14.628 17.5003 14.7316C17.8812 14.8236 18.267 14.8954 18.6561 14.9466C19.0747 15.0055 19.457 15.216 19.7303 15.5379C20.1228 16.0003 20.1431 17.0506 20.1383 18.0515C20.1346 18.8128 20.1794 19.5455 19.9939 19.969Z" stroke="currentColor" stroke-linecap="round" stroke-linejoin="round"/>
</svg>

<svg width="24" height="24" viewBox="0 0 24 24" fill="none" xmlns="http://www.w3.org/2000/svg"><path d="M14.15 6.44a4.311 4.311 0 013.403 3.398M14.15 3a7.762 7.762 0 014.624 2.216A7.735 7.735 0 0121 9.83m-1.006 10.14a1.72 1.72 0 01-1.734 1.024 17.075 17.075 0 01-7.437-2.64 16.79 16.79 0 01-5.17-5.161 17 17 0 01-2.646-7.457 1.717 1.717 0 011.02-1.728c.219-.097.456-.147.695-.147h2.072c.598 0 1.17 0 1.654.416.317.272.524.65.583 1.063.109.826.311 1.637.603 2.417a1.717 1.717 0 01-.388 1.815l-1.094 1.092a13.775 13.775 0 005.17 5.16l1.094-1.091a1.724 1.724 0 011.819-.387 11.067 11.067 0 002.421.602c.419.059.801.269 1.074.59.393.463.413 1.514.408 2.514-.003.762.041 1.495-.144 1.918z" stroke="currentColor" stroke-linecap="round" stroke-linejoin="round"/></svg>
